!!!SOCIAL_FUNCTION:	bird dance songs
!!!PDT:	1956
!!!OTL: No_153_Switchgrass_Dance_Song_(c).krn
!!!LANG: Non-Tone
!!!LING_GROUP: Muskogean
!!!REG: Florida
**kern
*staff1
=1-
*clefF4
*k[b-]
*M3/4
2r
8.r
16A\
=2
16A\LL
16G\JJ
16r
16d\
16d\LL
16B-\JJ
16r
16d\
16d\LK
8c\J
16r
=3!|:
*M2/4
8G\L
8A\J
8.c\L
16A\Jk
=4
16G\LL
16G\J
8A\J
16c\LL
16A\J
8G\J
=5||
*M3/4
8D\L
16G\L
16F\JJ
16G\LL
16F\J
8D\J
8D\
8r
=6||
*M2/4
8.D\L
16F\Jk
8D\L
16D\Jk
16r
=7
16c\LL
16c\
16A\
16d\JJ
8d\L
16c\Jk
16r
==:|!
*-
